communes/5551.svg

<?xml version="1.0" encoding="UTF-8" standalone="no"?>
<svg
   xmlns:dc="http://purl.org/dc/elements/1.1/"
   xmlns:cc="http://creativecommons.org/ns#"
   xmlns:rdf="http://www.w3.org/1999/02/22-rdf-syntax-ns#"
   xmlns:svg="http://www.w3.org/2000/svg"
   xmlns="http://www.w3.org/2000/svg"
   xmlns:xlink="http://www.w3.org/1999/xlink"
   xmlns:sodipodi="http://sodipodi.sourceforge.net/DTD/sodipodi-0.dtd"
   xmlns:inkscape="http://www.inkscape.org/namespaces/inkscape"
   height="763"
   width="603"
   version="1.0"
   id="svg20"
   sodipodi:version="0.32"
   inkscape:version="0.46"
   sodipodi:docname="Bonvillars-coat_of_arms.svg"
   sodipodi:docbase="C:\Documents and Settings\Steve\Bureau\Blason Villages Suisse pour Wikipédia (par Delta-9)"
   inkscape:output_extension="org.inkscape.output.svg.inkscape">
  <metadata
     id="metadata31">
    <rdf:RDF>
      <cc:Work
         rdf:about="">
        <dc:format>image/svg+xml</dc:format>
        <dc:type
           rdf:resource="http://purl.org/dc/dcmitype/StillImage" />
        <dc:date>07-AUG-2006</dc:date>
        <dc:creator>
          <cc:Agent>
            <dc:title>Jérôme BLUM (wagner51)</dc:title>
          </cc:Agent>
        </dc:creator>
        <cc:license
           rdf:resource="http://creativecommons.org/licenses/GPL/2.0/" />
        <dc:coverage />
        <dc:description>Gabarit pour le Projet:Blasons de WIkipédia</dc:description>
        <dc:subject>
          <rdf:Bag>
            <rdf:li>blason suisse modèle gabarit projet blasons</rdf:li>
          </rdf:Bag>
        </dc:subject>
        <dc:language>fr</dc:language>
        <dc:title>Gabrit d'un blason suisse</dc:title>
      </cc:Work>
      <cc:License
         rdf:about="http://creativecommons.org/licenses/GPL/2.0/">
        <cc:permits
           rdf:resource="http://web.resource.org/cc/Reproduction" />
        <cc:permits
           rdf:resource="http://web.resource.org/cc/Distribution" />
        <cc:requires
           rdf:resource="http://web.resource.org/cc/Notice" />
        <cc:permits
           rdf:resource="http://web.resource.org/cc/DerivativeWorks" />
        <cc:requires
           rdf:resource="http://web.resource.org/cc/ShareAlike" />
        <cc:requires
           rdf:resource="http://web.resource.org/cc/SourceCode" />
      </cc:License>
    </rdf:RDF>
  </metadata>
  <defs
     id="defs29"><inkscape:perspective
   sodipodi:type="inkscape:persp3d"
   inkscape:vp_x="0 : 381.5 : 1"
   inkscape:vp_y="0 : 1000 : 0"
   inkscape:vp_z="603 : 381.5 : 1"
   inkscape:persp3d-origin="301.5 : 254.33333 : 1"
   id="perspective28" />
<linearGradient
   id="linearGradient2893">
  <stop
     style="stop-color:#ffffff;stop-opacity:0.3137255;"
     offset="0"
     id="stop2895" />
  <stop
     id="stop2897"
     offset="0.19"
     style="stop-color:#ffffff;stop-opacity:0.25098041;" />
  <stop
     style="stop-color:#6b6b6b;stop-opacity:0.1254902;"
     offset="0.60000002"
     id="stop2901" />
  <stop
     style="stop-color:#000000;stop-opacity:0.1254902;"
     offset="1"
     id="stop2899" />
</linearGradient>
<linearGradient
   id="linearGradient2955">
  <stop
     style="stop-color:white;stop-opacity:0;"
     offset="0"
     id="stop2965" />
  <stop
     style="stop-color:black;stop-opacity:0.64583331;"
     offset="1"
     id="stop2959" />
</linearGradient>
<radialGradient
   inkscape:collect="always"
   xlink:href="#linearGradient2893"
   id="radialGradient3236"
   gradientUnits="userSpaceOnUse"
   gradientTransform="matrix(1.215027,1.531577e-24,1.464684e-23,1.266667,-839.1924,-490.4894)"
   cx="858.04236"
   cy="579.93323"
   fx="858.04236"
   fy="579.93323"
   r="300" />
<inkscape:perspective
   id="perspective2539"
   inkscape:persp3d-origin="297.63751 : 280.63 : 1"
   inkscape:vp_z="595.27502 : 420.94501 : 1"
   inkscape:vp_y="0 : 1000 : 0"
   inkscape:vp_x="0 : 420.94501 : 1"
   sodipodi:type="inkscape:persp3d" />

	
	
	

	

		
		
		
	
		
		
	
			
			
			
			
		
			
		
			
		
			
		</defs>
  <sodipodi:namedview
     inkscape:window-height="968"
     inkscape:window-width="1280"
     inkscape:pageshadow="2"
     inkscape:pageopacity="0.0"
     guidetolerance="10.0"
     gridtolerance="10.0"
     objecttolerance="10.0"
     borderopacity="1.0"
     bordercolor="#666666"
     pagecolor="#ffffff"
     id="base"
     inkscape:zoom="0.89255716"
     inkscape:cx="341.43931"
     inkscape:cy="372.47924"
     inkscape:window-x="1280"
     inkscape:window-y="22"
     inkscape:current-layer="layer2"
     showgrid="false"
     showguides="true"
     inkscape:guide-bbox="true">
    <sodipodi:guide
       orientation="horizontal"
       position="761.5"
       id="guide1885" />
    <sodipodi:guide
       orientation="vertical"
       position="1.5"
       id="guide1887" />
    <sodipodi:guide
       orientation="horizontal"
       position="1.5"
       id="guide1889" />
    <sodipodi:guide
       orientation="vertical"
       position="601.5"
       id="guide1891" />
    <sodipodi:guide
       orientation="vertical"
       position="301.50081"
       id="guide1893" />
  </sodipodi:namedview>
  <desc
     id="desc22">Coat of Arms of Canton of Freiburg (Fribourg)</desc>
  <g
     inkscape:groupmode="layer"
     id="layer1"
     inkscape:label="Fond écu"
     style="opacity:1;display:inline"
     sodipodi:insensitive="true">
    <path
       id="path1899"
       d="M 1.5,1.49998 L 1.5,460.3679 C 1.5,626.6785 135.81456,761.5 301.49999,761.5 C 467.18543,761.5 601.5,626.6785 601.5,460.3679 L 601.5,1.49998 L 1.5,1.49998 z"
       style="fill:#ffffff;fill-opacity:1" />
  </g>
  <g
     inkscape:groupmode="layer"
     id="layer2"
     inkscape:label="Meubles"
     style="opacity:1;display:inline"
     sodipodi:insensitive="true">
    <g
       id="g2623">
      <path
         id="path2514"
         d="M 432.731,251.188 L 301.497,392.404 L 170.264,251.188 L 1.5,251.188 L 217.117,483.207 L 65.524,646.33 C 91.147,679.045 123.383,706.285 160.201,726.055 L 301.498,574.01 L 442.798,726.055 C 479.615,706.285 511.854,679.045 537.477,646.33 L 385.883,483.206 L 601.497,251.186 L 432.731,251.188 L 432.731,251.188 z"
         style="fill:#2b5df2" />
      <path
         style="fill:none;stroke:#000000;stroke-width:3"
         d="M 537.476,646.33 L 385.883,483.206 L 601.497,251.186"
         id="path2518" />
      <path
         style="fill:none;stroke:#000000;stroke-width:3"
         d="M 160.201,726.054 L 301.498,574.009 L 442.798,726.054"
         id="path2520" />
      <path
         style="fill:none;stroke:#000000;stroke-width:3"
         d="M 1.5,251.188 L 217.117,483.207 L 65.524,646.33"
         id="path2522" />
      <path
         style="fill:none;stroke:#000000;stroke-width:3"
         d="M 432.731,251.187 L 432.731,251.187 L 301.497,392.404 L 170.264,251.188"
         id="path2524" />
      <line
         style="fill:none;stroke:#000000;stroke-width:3"
         id="line2592"
         x1="1.5000036"
         y1="251.188"
         x2="601.49896"
         y2="251.188" />
    </g>
    <g
       id="g2618">
      <polygon
         transform="translate(-3.8e-2,-4.5e-2)"
         style="fill:#2b5df2;stroke:#000000;stroke-width:3;stroke-miterlimit:20"
         id="polygon2528"
         stroke-miterlimit="20"
         points="301.535,49.32 320.084,106.404 380.104,106.404 331.548,141.684 350.097,198.769 301.535,163.489 252.979,198.769 271.524,141.684 222.968,106.404 282.989,106.404 301.535,49.32 " />
      <polygon
         transform="translate(-3.8e-2,-4.5e-2)"
         style="fill:#2b5df2;stroke:#000000;stroke-width:3;stroke-miterlimit:20"
         id="polygon2528_4_"
         stroke-miterlimit="20"
         points="112.578,49.32 131.124,106.404 191.146,106.404 142.586,141.684 161.138,198.769 112.578,163.489 64.02,198.769 82.565,141.684 34.009,106.404 94.03,106.404 112.578,49.32 " />
      <polygon
         transform="translate(-3.8e-2,-4.5e-2)"
         style="fill:#2b5df2;stroke:#000000;stroke-width:3;stroke-miterlimit:20"
         id="polygon2528_6_"
         stroke-miterlimit="20"
         points="509.045,106.404 569.063,106.404 520.508,141.684 539.055,198.769 490.496,163.489 441.937,198.769 460.484,141.684 411.927,106.404 471.948,106.404 490.496,49.32 509.045,106.404 " />
    </g>
  </g>
  <g
     inkscape:groupmode="layer"
     id="layer3"
     inkscape:label="Reflet final"
     style="display:inline"
     sodipodi:insensitive="true">
    <path
       style="fill:url(#radialGradient3236);fill-opacity:1"
       d="M 1.5,1.5 L 1.5,460.3679 C 1.5,626.67854 135.81454,761.5 301.49993,761.5 C 467.1854,761.5 601.5,626.67854 601.5,460.3679 L 601.5,1.5 L 1.5,1.5 z "
       id="path2346" />
  </g>
  <g
     inkscape:groupmode="layer"
     id="layer4"
     inkscape:label="Contour final"
     style="display:inline"
     sodipodi:insensitive="true">
    <path
       style="fill:none;fill-opacity:1;stroke:#000000;stroke-width:3;stroke-miterlimit:4;stroke-dasharray:none;stroke-opacity:1"
       d="M 1.5,1.5 L 1.5,460.36794 C 1.5,626.67854 135.81454,761.5 301.49993,761.5 C 467.1854,761.5 601.5,626.67854 601.5,460.36794 L 601.5,1.5 L 1.5,1.5 z "
       id="path3239" />
  </g>
</svg>

<?xml version="1.0" encoding="UTF-8"?>
<svg version="1.0" viewBox="0 0 603 763" xmlns="http://www.w3.org/2000/svg" xmlns:cc="http://creativecommons.org/ns#" xmlns:dc="http://purl.org/dc/elements/1.1/" xmlns:rdf="http://www.w3.org/1999/02/22-rdf-syntax-ns#" xmlns:xlink="http://www.w3.org/1999/xlink">
<metadata>
<rdf:RDF>
<cc:Work rdf:about="">
<dc:format>image/svg+xml</dc:format>
<dc:type rdf:resource="http://purl.org/dc/dcmitype/StillImage"/>
<dc:date>07-AUG-2006</dc:date>
<dc:creator>
<cc:Agent>
<dc:title>Jérôme BLUM (wagner51)</dc:title>
</cc:Agent>
</dc:creator>
<cc:license rdf:resource="http://creativecommons.org/licenses/GPL/2.0/"/>
<dc:coverage/>
<dc:description>Gabarit pour le Projet:Blasons de WIkipédia</dc:description>
<dc:subject>
<rdf:Bag>
<rdf:li>blason suisse modèle gabarit projet blasons</rdf:li>
</rdf:Bag>
</dc:subject>
<dc:language>fr</dc:language>
<dc:title>Gabrit d'un blason suisse</dc:title>
</cc:Work>
<cc:License rdf:about="http://creativecommons.org/licenses/GPL/2.0/">
<cc:permits rdf:resource="http://web.resource.org/cc/Reproduction"/>
<cc:permits rdf:resource="http://web.resource.org/cc/Distribution"/>
<cc:requires rdf:resource="http://web.resource.org/cc/Notice"/>
<cc:permits rdf:resource="http://web.resource.org/cc/DerivativeWorks"/>
<cc:requires rdf:resource="http://web.resource.org/cc/ShareAlike"/>
<cc:requires rdf:resource="http://web.resource.org/cc/SourceCode"/>
</cc:License>
</rdf:RDF>
</metadata>
<defs>
<radialGradient id="a" cx="858.04" cy="579.93" r="300" gradientTransform="matrix(1.215 1.5316e-24 1.4647e-23 1.2667 -839.19 -490.49)" gradientUnits="userSpaceOnUse">
<stop stop-color="#fff" stop-opacity=".31373" offset="0"/>
<stop stop-color="#fff" stop-opacity=".25098" offset=".19"/>
<stop stop-color="#6b6b6b" stop-opacity=".12549" offset=".6"/>
<stop stop-opacity=".12549" offset="1"/>
</radialGradient>
</defs>
<desc>Coat of Arms of Canton of Freiburg (Fribourg)</desc>
<g>
<path d="m1.5 1.5v458.87c0 166.31 134.31 301.13 300 301.13 165.69 0 300-134.82 300-301.13v-458.87h-600z" fill="#fff"/>
<path d="m432.73 251.19-131.23 141.22-131.23-141.22h-168.76l215.62 232.02-151.59 163.12c25.623 32.715 57.859 59.955 94.677 79.725l141.3-152.04 141.3 152.04c36.817-19.77 69.056-47.01 94.679-79.725l-151.59-163.12 215.61-232.02-168.77 2e-3z" fill="#2b5df2"/>
<path d="m537.48 646.33-151.59-163.12 215.61-232.02" fill="none" stroke="#000" stroke-width="3"/>
<path d="m160.2 726.05 141.3-152.04 141.3 152.04" fill="none" stroke="#000" stroke-width="3"/>
<path d="m1.5 251.19 215.62 232.02-151.59 163.12" fill="none" stroke="#000" stroke-width="3"/>
<path d="m432.73 251.19-131.23 141.22-131.23-141.22" fill="none" stroke="#000" stroke-width="3"/>
<line x1="1.5" x2="601.5" y1="251.19" y2="251.19" fill="none" stroke="#000" stroke-width="3"/>
<g fill="#2b5df2" stroke="#000" stroke-miterlimit="20" stroke-width="3">
<polygon transform="translate(-.038 -.045)" points="301.54 49.32 320.08 106.4 380.1 106.4 331.55 141.68 350.1 198.77 301.54 163.49 252.98 198.77 271.52 141.68 222.97 106.4 282.99 106.4"/>
<polygon transform="translate(-.038 -.045)" points="112.58 49.32 131.12 106.4 191.15 106.4 142.59 141.68 161.14 198.77 112.58 163.49 64.02 198.77 82.565 141.68 34.009 106.4 94.03 106.4"/>
<polygon transform="translate(-.038 -.045)" points="509.04 106.4 569.06 106.4 520.51 141.68 539.06 198.77 490.5 163.49 441.94 198.77 460.48 141.68 411.93 106.4 471.95 106.4 490.5 49.32"/>
</g>
</g>
<g>
<path d="m1.5 1.5v458.87c0 166.31 134.31 301.13 300 301.13 165.69 0 300-134.82 300-301.13v-458.87h-600z" fill="url(#a)"/>
<path d="m1.5 1.5v458.87c0 166.31 134.31 301.13 300 301.13 165.69 0 300-134.82 300-301.13v-458.87h-600z" fill="none" stroke="#000" stroke-width="3"/>
</g>
</svg>
